svg/300/outlined/clarify-fill.svg

<svg xmlns="http://www.w3.org/2000/svg" width="48" height="48" viewBox="0 -960 960 960"><path d="M264.616-304.616h245.383v-45.383H264.616v45.383Zm385.385 0h45.383v-350.768h-45.383v350.768ZM264.616-457.308h245.383v-45.384H264.616v45.384Zm0-152.693h245.383v-45.383H264.616v45.383Zm-112.615 470q-23.528 0-40.61-17.082t-17.082-40.611v-564.612q0-23.529 17.082-40.611 17.082-17.082 40.61-17.082h655.998q23.528 0 40.61 17.082t17.082 40.611v564.612q0 23.529-17.082 40.611-17.082 17.082-40.61 17.082H152.001Z"/></svg>

<svg xmlns="http://www.w3.org/2000/svg" width="48" height="48" viewBox="0 -960 960 960"><path d="M264.62-304.62H510V-350H264.62v45.38Zm385.38 0h45.38v-350.76H650v350.76ZM264.62-457.31H510v-45.38H264.62v45.38Zm0-152.69H510v-45.38H264.62V-610ZM152-140q-23.53 0-40.61-17.08t-17.08-40.61v-564.62q0-23.53 17.08-40.61T152-820h656q23.53 0 40.61 17.08t17.08 40.61v564.62q0 23.53-17.08 40.61T808-140H152Z"/></svg>
